src/assets/fleet-icons/user-management.svg

<svg width="24" height="24" viewBox="0 0 24 24" fill="none" xmlns="http://www.w3.org/2000/svg">
    <path
        d="M5.78168 19.25H13.2183C13.7828 19.25 14.227 18.7817 14.1145 18.2285C13.8039 16.7012 12.7897 14 9.49999 14C6.21031 14 5.19604 16.7012 4.88548 18.2285C4.77299 18.7817 5.21717 19.25 5.78168 19.25Z"
        stroke="currentColor" stroke-linecap="round" stroke-linejoin="round" />
    <path d="M15.75 14C17.8288 14 18.6802 16.1479 19.0239 17.696C19.2095 18.532 18.5333 19.25 17.6769 19.25H16.75"
        stroke="currentColor" stroke-linecap="round" stroke-linejoin="round" />
    <path
        d="M12.25 7.5C12.25 9.01878 11.0188 10.25 9.5 10.25C7.98122 10.25 6.75 9.01878 6.75 7.5C6.75 5.98122 7.98122 4.75 9.5 4.75C11.0188 4.75 12.25 5.98122 12.25 7.5Z"
        stroke="currentColor" stroke-linecap="round" stroke-linejoin="round" />
    <path d="M14.75 10.25C16.2688 10.25 17.25 9.01878 17.25 7.5C17.25 5.98122 16.2688 4.75 14.75 4.75"
        stroke="currentColor" stroke-linecap="round" stroke-linejoin="round" />
</svg>

<svg width="24" height="24" fill="none" xmlns="http://www.w3.org/2000/svg">
    <path
        d="M5.782 19.25h7.436c.565 0 1.009-.468.896-1.021C13.804 16.7 12.79 14 9.5 14s-4.304 2.701-4.615 4.229c-.112.553.332 1.021.897 1.021ZM15.75 14c2.079 0 2.93 2.148 3.274 3.696.185.836-.49 1.554-1.347 1.554h-.927M12.25 7.5a2.75 2.75 0 1 1-5.5 0 2.75 2.75 0 0 1 5.5 0Zm2.5 2.75c1.519 0 2.5-1.231 2.5-2.75s-.981-2.75-2.5-2.75"
        stroke="currentColor" stroke-linecap="round" stroke-linejoin="round" />
</svg>
